X: 20812
Q: "Moderate."
M: 6/8
L: 1/8
K: C
(Gc)c (cB)c | (ce)c (AG)F | (EF)G A2d | (c3 B2)G |\
(Gd)d (dB)G | (Gce) (ed)c | (ce)g fed |\
(ce)c (AG)F | (E>F)G G2e | Hf3 He2z | A>AA B2d | c3 z2 |]


